!!!!SEGMENT: Con2014-O_desolatorum_consolator--Cappella_Sistina_55
!!!id: Con2014
!!!AGN: Motet
!!!voices: 6
!!!COM: Jean Conseil
!!!OTL: O desolatorum consolator (Cappella Sistina 55)
**kern	**text	**kern	**text	**kern	**text	**kern	**text	**kern	**text	**kern	**text
*part6	*part6	*part5	*part5	*part4	*part4	*part3	*part3	*part2	*part2	*part1	*part1
*staff6	*staff6	*staff5	*staff5	*staff4	*staff4	*staff3	*staff3	*staff2	*staff2	*staff1	*staff1
*I"Bassus	*	*I"Tenor II	*	*I"Tenor I	*	*I"Altus II	*	*I"Altus I	*	*I"Superius	*
*I'B	*	*I'T. II	*	*I'T. I	*	*I'A. II	*	*I'A. I	*	*I'S	*
*clefF4	*	*clefGv2	*	*clefGv2	*	*clefGv2	*	*clefG2	*	*clefG2	*
*k[b-]	*	*k[b-]	*	*k[b-]	*	*k[b-]	*	*k[b-]	*	*k[b-]	*
*F:	*	*F:	*	*F:	*	*F:	*	*F:	*	*F:	*
*M2/1	*	*M2/1	*	*M2/1	*	*M2/1	*	*M2/1	*	*M2/1	*
*met(C|)	*	*met(C|)	*	*met(C|)	*	*met(C|)	*	*met(C|)	*	*met(C|)	*
=1	=1	=1	=1	=1	=1	=1	=1	=1	=1	=1	=1
0r	.	0r	.	1r	.	0r	.	1d	O	0r	.
.	.	.	.	1G	O	.	.	2d	de-	.	.
.	.	.	.	.	.	.	.	2d	so-	.	.
=	=	=	=	=	=	=	=	=	=	=	=
0r	.	0r	.	2G	de-	0r	.	1.g	la-	1r	.
.	.	.	.	2G	so-	.	.	.	.	.	.
.	.	.	.	[1c	la-	.	.	.	.	1g	O
.	.	.	.	.	.	.	.	2f	to-	.	.
=	=	=	=	=	=	=	=	=	=	=	=
0r	.	0r	.	2c]	.	0r	.	2e	rum	2g	de-
.	.	.	.	2B-y	to-	.	.	2d	.	2g	so-
.	.	.	.	2A	rum	.	.	[1c	con-	2.cc	la-
.	.	.	.	2G	.	.	.	.	.	.	.
.	.	.	.	.	.	.	.	.	.	4b-y	.
=	=	=	=	=	=	=	=	=	=	=	=
0r	.	0r	.	1.F	con-	0r	.	2c]	.	4a	to-
.	.	.	.	.	.	.	.	.	.	4g	.
.	.	.	.	.	.	.	.	1cc	so-	1a	rum
.	.	.	.	2G	so-	.	.	2bnXi	la-	4g	.
.	.	.	.	.	.	.	.	.	.	4f	.
=	=	=	=	=	=	=	=	=	=	=	=
0r	.	1r	.	1A	la-	1c	O	1cc	.	2e	.
.	.	.	.	.	.	.	.	.	.	2f	con-
.	.	1C	O	1G	.	2c	de-	4cc	tor	2f	so-
.	.	.	.	.	.	.	.	4b-y	.	.	.
.	.	.	.	.	.	2c	so-	8ccL	.	2e	la-
.	.	.	.	.	.	.	.	8b-y	.	.	.
.	.	.	.	.	.	.	.	8a	.	.	.
.	.	.	.	.	.	.	.	8gJ	.	.	.
=	=	=	=	=	=	=	=	=	=	=	=
1FF	O	2C	De-	1F	tor	1.f	la-	0a	.	1f	tor
.	.	2C	so-	.	.	.	.	.	.	.	.
2FF	De-	[1F	la-	1r	.	.	.	.	.	1r	.
2FF	so-	.	.	.	.	2e	to-	.	.	.	.
=	=	=	=	=	=	=	=	=	=	=	=
1.BB-y	la-	2F]	.	0r	.	2d	rum	0r	.	0r	.
.	.	2E	to-	.	.	2c	.	.	.	.	.
.	.	2D	rum	.	.	[1B-y	con-	.	.	.	.
2AA	to-	2C	.	.	.	.	.	.	.	.	.
=	=	=	=	=	=	=	=	=	=	=	=
2GG	rum	2D	con-	0r	.	2B-]	.	0r	.	0r	.
2FF	con-	1F	so-	.	.	1A	so-	.	.	.	.
1C	so-	.	.	.	.	.	.	.	.	.	.
.	.	4E	.	.	.	4G	.	.	.	.	.
.	.	4D	.	.	.	4F	.	.	.	.	.
=	=	=	=	=	=	=	=	=	=	=	=
1C	la-	1E	la-	0r	.	1G	la-	0r	.	1r	.
[1FF	tor	[1F	tor	.	.	[1A	tor	.	.	[1f	ca-
=	=	=	=	=	=	=	=	=	=	=	=
0FF_	.	0F_	.	0r	.	0A_	.	1.f	ca-	2f]	.
.	.	.	.	.	.	.	.	.	.	2g	pti-
.	.	.	.	.	.	.	.	.	.	1a	uo-
.	.	.	.	.	.	.	.	2g	pti-	.	.
=	=	=	=	=	=	=	=	=	=	=	=
1FF]	.	1F]	.	0r	.	1A]	.	1a	uo-	1f	.
1r	.	1r	.	.	.	1r	.	1f	rum	[1cc	.
=	=	=	=	=	=	=	=	=	=	=	=
0r	.	0r	.	1.F	ca-	0r	.	1.cc	li-	2cc]	rum
.	.	.	.	.	.	.	.	.	.	2b-y	.
.	.	.	.	.	.	.	.	.	.	2a	li-
.	.	.	.	2G	pti-	.	.	2b-y	be-	4g	.
.	.	.	.	.	.	.	.	.	.	4f	.
=	=	=	=	=	=	=	=	=	=	=	=
0r	.	0r	.	1A	uo-	0r	.	1.a	ra-	2e	.
.	.	.	.	.	.	.	.	.	.	1cc	.
.	.	.	.	1F	rum	.	.	.	.	.	.
.	.	.	.	.	.	.	.	4g	.	4b-y	.
.	.	.	.	.	.	.	.	4f	.	4a	.
=	=	=	=	=	=	=	=	=	=	=	=
0r	.	0r	.	1.c	li-	0r	.	2.e	.	1g	.
.	.	.	.	.	.	.	.	4d	.	.	.
.	.	.	.	.	.	.	.	4e	.	[1cc	.
.	.	.	.	.	.	.	.	4f	.	.	.
.	.	.	.	2B-y	be-	.	.	[2g	.	.	.
=	=	=	=	=	=	=	=	=	=	=	=
0r	.	0r	.	2A	re-	0r	.	4g]	.	2cc]	.
.	.	.	.	.	.	.	.	4f	.	.	.
.	.	.	.	4G	.	.	.	1f	.	4b-y	.
.	.	.	.	4F	.	.	.	.	.	4a	.
.	.	.	.	1G	.	.	.	.	.	1b-y	.
.	.	.	.	.	.	.	.	2e	.	.	.
=	=	=	=	=	=	=	=	=	=	=	=
0r	.	1.F	Ca-	1F	tor	1r	.	0f	tor	[0a	tor
.	.	.	.	1r	.	[1F	Ca-	.	.	.	.
.	.	2G	pti-	.	.	.	.	.	.	.	.
=	=	=	=	=	=	=	=	=	=	=	=
0r	.	1A	uo-	0r	.	2F]	.	0r	.	0a]	.
.	.	.	.	.	.	2G	pti-	.	.	.	.
.	.	1F	rum	.	.	1A	uo-	.	.	.	.
=	=	=	=	=	=	=	=	=	=	=	=
1r	.	1.c	li-	0r	.	1F	rum	0r	.	0ryy	.
[1FF	Ca-	.	.	.	.	[1c	li-	.	.	.	.
.	.	2B-y	be-	.	.	.	.	.	.	.	.
=	=	=	=	=	=	=	=	=	=	=	=
2FF]	.	2A	ra-	0r	.	2c]	.	0r	.	0r	.
2GG	pti-	4G	.	.	.	2B-y	be-	.	.	.	.
.	.	4F	.	.	.	.	.	.	.	.	.
1AA	uo-	4E	.	.	.	[1A	ra-	.	.	.	.
.	.	4C	.	.	.	.	.	.	.	.	.
.	.	[2c	.	.	.	.	.	.	.	.	.
=	=	=	=	=	=	=	=	=	=	=	=
1FF	rum	2c]	.	0r	.	2A]	.	0r	.	0r	.
.	.	4B-y	.	.	.	4G	.	.	.	.	.
.	.	4A	.	.	.	4F	.	.	.	.	.
[1C	li-	4G	.	.	.	4E	.	.	.	.	.
.	.	4F	.	.	.	4D	.	.	.	.	.
.	.	4E	.	.	.	4E	.	.	.	.	.
.	.	4D	.	.	.	4F	.	.	.	.	.
=	=	=	=	=	=	=	=	=	=	=	=
2C]	.	2E	.	0r	.	1G	.	0r	.	0r	.
2BB-y	be-	2D	.	.	.	.	.	.	.	.	.
2AA	ra-	2C	.	.	.	1A	tor	.	.	.	.
4GG	.	[2F	.	.	.	.	.	.	.	.	.
4FF	.	.	.	.	.	.	.	.	.	.	.
=	=	=	=	=	=	=	=	=	=	=	=
1GG	.	2F]	.	0r	.	1B-y	.	0r	.	0r	.
.	.	2E	.	.	.	.	.	.	.	.	.
1FF	tor	[1F	tor	.	.	[1A	.	.	.	.	.
=	=	=	=	=	=	=	=	=	=	=	=
2r	.	1F]	.	0r	.	1A]	.	0r	.	0r	.
1FF	Re-	.	.	.	.	.	.	.	.	.	.
.	.	2r	.	.	.	2r	.	.	.	.	.
2FF	sur-	2C	re-	.	.	[2A	Re-	.	.	.	.
=	=	=	=	=	=	=	=	=	=	=	=
2FF	re-	2D	sur-	0r	.	2A]	.	0r	.	0r	.
2FF	cti-	1F	re-	.	.	2A	sur-	.	.	.	.
1C	o	.	.	.	.	2G	.	.	.	.	.
.	.	2E	cti-	.	.	2G	re-	.	.	.	.
=	=	=	=	=	=	=	=	=	=	=	=
2FF	mor-	2F	o	0r	.	2A	cti-	0r	.	0r	.
2C	tu-	2E	mor-	.	.	2c	o	.	.	.	.
2D	o-	2F	tu-	.	.	4B-y	mor-	.	.	.	.
.	.	.	.	.	.	4A	.	.	.	.	.
[2F	.	2D	o-	.	.	4G	.	.	.	.	.
.	.	.	.	.	.	4F	.	.	.	.	.
=	=	=	=	=	=	=	=	=	=	=	=
2F]	.	1C	rum	0r	.	1G	.	0r	.	0r	.
2E	.	.	.	.	.	.	.	.	.	.	.
4F	.	2r	.	.	.	2A	tu-	.	.	.	.
4E	.	.	.	.	.	.	.	.	.	.	.
4D	.	[2F	mor-	.	.	[2B-y	o-	.	.	.	.
4C	.	.	.	.	.	.	.	.	.	.	.
=	=	=	=	=	=	=	=	=	=	=	=
4D	.	4F]	.	0r	.	4B-]	.	0r	.	0r	.
4C	.	4E	.	.	.	4A	.	.	.	.	.
4BB-y	.	4D	tu-	.	.	1A	.	.	.	.	.
4AA	.	4C	.	.	.	.	.	.	.	.	.
2BB-y	.	2D	.	.	.	.	.	.	.	.	.
2C	.	2E	o-	.	.	2G	.	.	.	.	.
=	=	=	=	=	=	=	=	=	=	=	=
0FF	rum	1F	rum	1.F	Lu-	0A	rum	1.c	Lu-	1.a	Lu-
.	.	1r	.	.	.	.	.	.	.	.	.
.	.	.	.	2F	men	.	.	2c	men	2a	men
=	=	=	=	=	=	=	=	=	=	=	=
0r	.	0r	.	1F	ce-	0r	.	2c	ce-	1a	ce-
.	.	.	.	.	.	.	.	1f	co-	.	.
.	.	.	.	1c	co-	.	.	.	.	1g	co-
.	.	.	.	.	.	.	.	2e	.	.	.
=	=	=	=	=	=	=	=	=	=	=	=
0r	.	2r	.	1F	rum	0r	.	4f	rum	4a	.
.	.	.	.	.	.	.	.	4g	.	4b-y	.
.	.	2F	au-	.	.	.	.	4a	.	4cc	.
.	.	.	.	.	.	.	.	4f	.	4a	.
.	.	2G	di-	1r	.	.	.	2g	.	4b-y	.
.	.	.	.	.	.	.	.	.	.	4a	.
.	.	2A	tus	.	.	.	.	[2f	.	4g	.
.	.	.	.	.	.	.	.	.	.	4f	.
=	=	=	=	=	=	=	=	=	=	=	=
0r	.	2B-y	sur-	2r	.	0r	.	2f]	.	1g	.
.	.	2c	do-	2C	au-	.	.	2e	.	.	.
.	.	2.A	rum	2D	di-	.	.	1f	.	1f	rum
.	.	.	.	[2F	tus	.	.	.	.	.	.
.	.	4G	.	.	.	.	.	.	.	.	.
=	=	=	=	=	=	=	=	=	=	=	=
0r	.	4A	.	2F]	.	0r	.	1r	.	2r	.
.	.	4B-y	.	.	.	.	.	.	.	.	.
.	.	2.c	.	2E	sur-	.	.	.	.	2g	au-
.	.	.	.	2.F	do-	.	.	2r	.	2a	.
.	.	4B-y	.	.	.	.	.	.	.	.	.
.	.	4A	.	.	.	.	.	2c	au-	[2cc	.
.	.	4G	.	4E	.	.	.	.	.	.	.
=	=	=	=	=	=	=	=	=	=	=	=
1r	.	1F	au-	1D	.	0r	.	2d	di-	2cc]	.
.	.	.	.	.	.	.	.	1f	.	2b-y	.
2r	.	1G	.	1C	rum	.	.	.	.	2.cc	di-
2C	Au-	.	.	.	.	.	.	2e	tus	.	.
.	.	.	.	.	.	.	.	.	.	4b-y	.
=	=	=	=	=	=	=	=	=	=	=	=
2D	di-	1F	di-	0r	.	0r	.	2.f	sur-	4a	.
.	.	.	.	.	.	.	.	.	.	4g	.
1F	tus	.	.	.	.	.	.	.	.	2a	.
.	.	.	.	.	.	.	.	4g	.	.	.
.	.	1c	tus	.	.	.	.	4a	do-	2f	tus
.	.	.	.	.	.	.	.	4b-y	.	.	.
2E	sur-	.	.	.	.	.	.	[2cc	.	2g	.
=	=	=	=	=	=	=	=	=	=	=	=
2F	do-	1d	sur-	1r	.	2r	.	2cc]	.	2a	.
2G	.	.	.	.	.	2G	au-	2bnXi	.	4g	.
.	.	.	.	.	.	.	.	.	.	4f	.
1C	rum	2.c	do-	2r	.	2A	di-	1cc	rum	1e	.
.	.	.	.	2C	au-	[2c	tus	.	.	.	.
.	.	4B-y	.	.	.	.	.	.	.	.	.
=	=	=	=	=	=	=	=	=	=	=	=
2r	.	2A	.	1D	di-	2c]	.	0r	.	2f	sur-
2GG	au-	4G	.	.	.	2B-y	sur-	.	.	2g	do-
.	.	4F	.	.	.	.	.	.	.	.	.
2AA	di-	2.E	.	[1C	tus	1c	do-	.	.	2.c	.
[2C	tus	.	.	.	.	.	.	.	.	.	.
.	.	4F	.	.	.	.	.	.	.	4d	.
=	=	=	=	=	=	=	=	=	=	=	=
2C]	.	4G	.	2C]	.	2G	.	0r	.	4e	.
.	.	4A	.	.	.	.	.	.	.	4f	.
2BB-y	sur-	2.B-y	.	2.D	sur-	1d	.	.	.	2.g	.
1D	do-	.	.	.	.	.	.	.	.	.	.
.	.	4A	.	4E	.	.	.	.	.	4f	.
.	.	4G	.	4F	.	2B-y	.	.	.	[2f	.
.	.	4F	.	4D	.	.	.	.	.	.	.
=	=	=	=	=	=	=	=	=	=	=	=
1C	.	1G	.	1E	do-	0c	rum	1g	mu-	2f]	.
.	.	.	.	.	.	.	.	.	.	2e	.
[1FF	rum	[1F	rum	[1C	rum	.	.	1a	to-	[1f	rum
=	=	=	=	=	=	=	=	=	=	=	=
1FF]	.	1F]	.	1C]	.	2r	.	1cc	rum	1f]	.
.	.	.	.	.	.	2c	mu-	.	.	.	.
1r	.	1r	.	1r	.	1d	to-	2b-y	e-	1r	.
.	.	.	.	.	.	.	.	[2a	lo-	.	.
=	=	=	=	=	=	=	=	=	=	=	=
0r	.	0r	.	0r	.	1f	rum	4a]	.	0r	.
.	.	.	.	.	.	.	.	4g	.	.	.
.	.	.	.	.	.	.	.	4a	qui-	.	.
.	.	.	.	.	.	.	.	4f	.	.	.
.	.	.	.	.	.	2e	e-	2g	.	.	.
.	.	.	.	.	.	[2d	lo-	2a	.	.	.
=	=	=	=	=	=	=	=	=	=	=	=
0r	.	2r	.	0r	.	4d]	.	1b-y	.	0r	.
.	.	.	.	.	.	4c	.	.	.	.	.
.	.	2G	mu-	.	.	4d	.	.	.	.	.
.	.	.	.	.	.	4B-y	.	.	.	.	.
.	.	1A	tu-	.	.	2.c	qui-	2a	.	.	.
.	.	.	.	.	.	.	.	[2cc	um	.	.
.	.	.	.	.	.	4d	.	.	.	.	.
=	=	=	=	=	=	=	=	=	=	=	=
1C	mu-	2.c	o-	0r	.	1e	.	4cc]	.	0r	.
.	.	.	.	.	.	.	.	4b-y	.	.	.
.	.	.	.	.	.	.	.	4a	.	.	.
.	.	4B-y	.	.	.	.	.	4g	.	.	.
1D	to-	4A	.	.	.	1d	um	1f	.	.	.
.	.	4G	.	.	.	.	.	.	.	.	.
.	.	[2A	rum	.	.	.	.	.	.	.	.
=	=	=	=	=	=	=	=	=	=	=	=
1F	rum	4A]	.	0r	.	1c	.	0r	.	0r	.
.	.	4G	.	.	.	.	.	.	.	.	.
.	.	4A	.	.	.	.	.	.	.	.	.
.	.	4F	.	.	.	.	.	.	.	.	.
2E	e-	2G	.	.	.	2r	.	.	.	.	.
[2D	lo-	2A	e-	.	.	[2f	e-	.	.	.	.
=	=	=	=	=	=	=	=	=	=	=	=
4D]	.	1B-y	lo-	1r	.	4f]	.	0r	.	0r	.
4C	.	.	.	.	.	4e	.	.	.	.	.
4D	.	.	.	.	.	4f	lo-	.	.	.	.
4BB-y	.	.	.	.	.	4d	.	.	.	.	.
2C	.	2A	.	2r	.	2e	.	.	.	.	.
2D	qui-	2A	qui-	2F	mu-	[2d	qui-	.	.	.	.
=	=	=	=	=	=	=	=	=	=	=	=
0GG	um	2B-y	.	1G	to-	4d]	.	0r	.	1r	.
.	.	.	.	.	.	4c	.	.	.	.	.
.	.	2.G	.	.	.	4B-y	.	.	.	.	.
.	.	.	.	.	.	4A	.	.	.	.	.
.	.	.	.	1B-y	rum	1G	um	.	.	2r	.
.	.	4F	.	.	.	.	.	.	.	.	.
.	.	4G	.	.	.	.	.	.	.	2g	mu-
.	.	4E	.	.	.	.	.	.	.	.	.
=	=	=	=	=	=	=	=	=	=	=	=
0r	.	2F	um	2A	e-	0r	.	1r	.	1a	to-
.	.	2D	tu-	2.F	lo-	.	.	.	.	.	.
.	.	1A	tor	.	.	.	.	2r	.	1cc	.
.	.	.	.	4G	.	.	.	.	.	.	.
.	.	.	.	4A	.	.	.	2c	mu-	.	.
.	.	.	.	4F	.	.	.	.	.	.	.
=	=	=	=	=	=	=	=	=	=	=	=
0r	.	0r	.	2G	.	0r	.	1d	to-	2b-y	rum
.	.	.	.	2.F	qui-	.	.	.	.	2.a	e-
.	.	.	.	.	.	.	.	1f	rum	.	.
.	.	.	.	4E	.	.	.	.	.	4g	.
.	.	.	.	2D	.	.	.	.	.	4a	.
.	.	.	.	.	.	.	.	.	.	4f	.
=	=	=	=	=	=	=	=	=	=	=	=
0r	.	0r	.	1C	um	1r	.	2e	e-	2.g	lo-
.	.	.	.	.	.	.	.	2e	lo-	.	.
.	.	.	.	.	.	.	.	.	.	4a	.
.	.	.	.	1r	.	1G	tu-	4d	qui-	1b-y	.
.	.	.	.	.	.	.	.	4c	.	.	.
.	.	.	.	.	.	.	.	4d	.	.	.
.	.	.	.	.	.	.	.	4e	.	.	.
=	=	=	=	=	=	=	=	=	=	=	=
0r	.	1r	.	0r	.	0d	tor	1f	um	2a	qui-
.	.	.	.	.	.	.	.	.	.	1dd	.
.	.	1G	tu-	.	.	.	.	1g	.	.	.
.	.	.	.	.	.	.	.	.	.	4cc	.
.	.	.	.	.	.	.	.	.	.	4b-y	.
=	=	=	=	=	=	=	=	=	=	=	=
0r	.	1d	tor	1D	Tu-	1r	.	1f	.	2a	.
.	.	.	.	.	.	.	.	.	.	2.b-y	.
.	.	2G	nau-	[1d	tor	2r	.	1r	.	.	.
.	.	.	.	.	.	.	.	.	.	4a	.
.	.	2A	fra-	.	.	2D	tu-	.	.	[2a	.
=	=	=	=	=	=	=	=	=	=	=	=
1GG	Tu-	2B-y	gan-	2d]	.	0d	tor	0r	.	2a]	.
.	.	2B-y	ti-	2D	nau-	.	.	.	.	2g	.
[1D	tor	2A	um	[1F	fra-	.	.	.	.	[1a	um
.	.	2D	.	.	.	.	.	.	.	.	.
=	=	=	=	=	=	=	=	=	=	=	=
2D]	.	1.A	nau-	2F]	.	2r	.	0r	.	1a]	.
2D	nau-	.	.	2F	gan-	2d	nau-	.	.	.	.
2C	fra-	.	.	2E	.	2e	fra-	.	.	1r	.
[2D	gan-	2A	fra-	2D	.	[2f	gan-	.	.	.	.
=	=	=	=	=	=	=	=	=	=	=	=
4D]	.	2A	gan-	1.F	ti-	4f]	.	2r	.	1r	.
4C	.	.	.	.	.	4e	.	.	.	.	.
4BB-y	.	1A	ti-	.	.	4d	.	2a	tu-	.	.
4AA	.	.	.	.	.	4c	.	.	.	.	.
2BB-y	.	.	.	.	.	2d	.	1dd	tor	2r	.
2BB-y	ti-	2G	.	4E	.	2B-y	.	.	.	2d	tu-
.	.	.	.	4D	.	.	.	.	.	.	.
=	=	=	=	=	=	=	=	=	=	=	=
1AA	um	1A	um	2E	.	1c	ti-	1cc	nau-	1.a	tor
.	.	.	.	1F	.	.	.	.	.	.	.
1r	.	1r	.	.	.	2A	.	2cc	fra-	.	.
.	.	.	.	2G	.	2d	.	[2b-y	gan-	2g	nau-
=	=	=	=	=	=	=	=	=	=	=	=
0r	.	1r	.	2A	.	2c	.	4b-]	.	2e	fra-
.	.	.	.	.	.	.	.	4a	.	.	.
.	.	.	.	2F	.	4B-y	.	1a	.	2f	gan-
.	.	.	.	.	.	4A	.	.	.	.	.
.	.	1d	Im-	1G	.	1B-y	.	.	.	2.d	ti-
.	.	.	.	.	.	.	.	2g	ti-	.	.
.	.	.	.	.	.	.	.	.	.	4e	.
=	=	=	=	=	=	=	=	=	=	=	=
1.D	Im-	1d	Po-	2D	um	2A	um	0a	vm	0f	um
.	.	.	.	1F	Im-	1A	Im-	.	.	.	.
.	.	2d	ten-	.	.	.	.	.	.	.	.
2D	po-	2d	ti-	2F	po-	2A	po-	.	.	.	.
=	=	=	=	=	=	=	=	=	=	=	=
2D	ten-	0A	um	2F	ten-	2d	ten-	2r	.	1r	.
2D	ti-	.	.	2F	ti-	2d	ti-	1a	Im	.	.
[1AA	um	.	.	[1E	um	[1c	um	.	.	[1cc	Im-
.	.	.	.	.	.	.	.	2a	po-	.	.
=	=	=	=	=	=	=	=	=	=	=	=
1AA]	.	2r	.	1E]	.	0c]	.	2a	ten-	2cc]	.
.	.	1A	et	.	.	.	.	2a	ti-	2cc	po-
2r	.	.	.	2r	.	.	.	[1g	tum	2cc	ten-
[2C	et	2A	lan-	[2E	et	.	.	.	.	2cc	ti-
=	=	=	=	=	=	=	=	=	=	=	=
2C]	.	1G	gui-	2E]	.	2r	.	1g]	.	1g	um
2C	lan-	.	.	2E	lan-	1c	et	.	.	.	.
2AA	gui-	1A	do-	2C	gui-	.	.	1r	.	2r	.
2FF	.	.	.	[2F	do-	2c	lan-	.	.	[2cc	et
=	=	=	=	=	=	=	=	=	=	=	=
1C	do-	2G	rum	2F]	.	1c	gui-	0r	.	2cc]	.
.	.	2.A	sa-	2E	rum	.	.	.	.	2cc	lan-
2FF	.	.	.	2F	sa-	1A	do-	.	.	1cc	gui-
.	.	4G	.	.	.	.	.	.	.	.	.
2AA	.	[2F	.	[2C	na-	.	.	.	.	.	.
=	=	=	=	=	=	=	=	=	=	=	=
1GG	.	2F]	.	2C]	.	1B-y	.	0r	.	2b-y	do-
.	.	2E	.	2BB-y	.	.	.	.	.	2g	.
[1FF	rum	2F	na-	[1C	tor	2A	rum	.	.	2a	.
.	.	[2A	.	.	.	[2F	sa-	.	.	[2cc	.
=	=	=	=	=	=	=	=	=	=	=	=
1FF]	.	4A]	.	1C]	.	4F]	.	1r	.	4cc]	.
.	.	4G	.	.	.	4G	.	.	.	4b-y	.
.	.	1F	.	.	.	4A	.	.	.	1a	.
.	.	.	.	.	.	4B-y	.	.	.	.	.
1r	.	.	.	1r	.	2c	.	2r	.	.	.
.	.	4E	.	.	.	2F	.	[2cc	et	4g	.
.	.	4D	.	.	.	.	.	.	.	4f	.
=	=	=	=	=	=	=	=	=	=	=	=
0r	.	2.C	.	0r	.	1.G	na-	2cc]	.	4e	.
.	.	.	.	.	.	.	.	.	.	4f	.
.	.	.	.	.	.	.	.	2cc	lan-	2.g	.
.	.	4D	.	.	.	.	.	.	.	.	.
.	.	2E	.	.	.	.	.	1cc	gui-	.	.
.	.	.	.	.	.	.	.	.	.	4f	.
.	.	2F	.	.	.	2A	.	.	.	[2f	rum
=	=	=	=	=	=	=	=	=	=	=	=
0r	.	1G	tor	1r	.	1B-y	.	1b-y	um	2f]	.
.	.	.	.	.	.	.	.	.	.	2e	.
.	.	1r	.	[1F	et	[1c	.	2a	do-	2.f	sa-
.	.	.	.	.	.	.	.	[2cc	rum	.	.
.	.	.	.	.	.	.	.	.	.	4g	.
=	=	=	=	=	=	=	=	=	=	=	=
0r	.	0r	.	2F]	.	1c]	.	4cc]	.	4a	.
.	.	.	.	.	.	.	.	4b-y	.	4b-y	.
.	.	.	.	2F	lan-	.	.	1a	.	1cc	.
.	.	.	.	2F	qui-	1d	.	.	.	.	.
.	.	.	.	2G	do-	.	.	4g	.	2b-y	.
.	.	.	.	.	.	.	.	4f	.	.	.
=	=	=	=	=	=	=	=	=	=	=	=
0r	.	0r	.	2A	rum	2c	.	2e	.	2cc	na-
.	.	.	.	2G	sa-	1B-y	.	2.g	sa-	2dd	.
.	.	.	.	2E-X	na-	.	.	.	.	2g	.
.	.	.	.	.	.	.	.	4f	.	.	.
.	.	.	.	2F	.	2A	.	[2f	.	4a	.
.	.	.	.	.	.	.	.	.	.	4b-y	.
=	=	=	=	=	=	=	=	=	=	=	=
1r	.	2r	.	0C	tor	1G	.	2f]	.	1cc	.
.	.	2G	me-	.	.	.	.	2e	na-	.	.
1FF	me-	2A	di-	.	.	1F	tor	1f	tor	[1cc	tor
.	.	[2c	ci-	.	.	.	.	.	.	.	.
=	=	=	=	=	=	=	=	=	=	=	=
0C	di-	2c]	.	0r	.	0r	.	0r	.	1cc]	.
.	.	4B-y	.	.	.	.	.	.	.	.	.
.	.	4A	.	.	.	.	.	.	.	.	.
.	.	2G	.	.	.	.	.	.	.	1r	.
.	.	[2A	ne	.	.	.	.	.	.	.	.
=	=	=	=	=	=	=	=	=	=	=	=
1D	ci-	2A]	.	1F	me-	1r	.	0r	.	0r	.
.	.	4G	.	.	.	.	.	.	.	.	.
.	.	4F	.	.	.	.	.	.	.	.	.
[1D	ne	2.E	re-	[1c	di-	2r	.	.	.	.	.
.	.	.	.	.	.	2C	me-	.	.	.	.
.	.	4D	.	.	.	.	.	.	.	.	.
=	=	=	=	=	=	=	=	=	=	=	=
2D]	.	1E	.	1c]	.	0G	di-	0r	.	0r	.
4BB-y	.	.	.	.	.	.	.	.	.	.	.
4AA	.	.	.	.	.	.	.	.	.	.	.
2BB-y	.	1D	fu-	1d	ci-	.	.	.	.	.	.
2BB-y	re-	.	.	.	.	.	.	.	.	.	.
=	=	=	=	=	=	=	=	=	=	=	=
1AA	fu-	1E	gi-	1.c	ne	0A	ci-	0r	.	0r	.
2FF	gi-	1F	um	.	.	.	.	.	.	.	.
[2F	um	.	.	2A	re-	.	.	.	.	.	.
=	=	=	=	=	=	=	=	=	=	=	=
4F]	.	0r	.	2B-y	fu-	1G	ne	0r	.	1r	.
4E	.	.	.	.	.	.	.	.	.	.	.
4E	.	.	.	2B-y	gi-	.	.	.	.	.	.
8DL	.	.	.	.	.	.	.	.	.	.	.
8EJ	.	.	.	.	.	.	.	.	.	.	.
1F	.	.	.	[1A	num	1r	.	.	.	1f	me-
=	=	=	=	=	=	=	=	=	=	=	=
0r	.	0F	me-	1A]	.	0r	.	2r	.	0cc	di-
.	.	.	.	.	.	.	.	2c	me-	.	.
.	.	.	.	1r	.	.	.	[1f	di-	.	.
=	=	=	=	=	=	=	=	=	=	=	=
0r	.	2B-y	di-	0r	.	1r	.	2f]	.	1dd	ci-
.	.	2B-y	ci-	.	.	.	.	2g	ci-	.	.
.	.	[1A	ne	.	.	1F	me-	2.a	ne	[1cc	ne
.	.	.	.	.	.	.	.	8gL	.	.	.
.	.	.	.	.	.	.	.	8fJ	.	.	.
=	=	=	=	=	=	=	=	=	=	=	=
0r	.	2A]	.	0r	.	2c	di-	2e	.	2cc]	.
.	.	2F	re-	.	.	1d	ci-	1f	re-	2a	re-
.	.	2G	fu-	.	.	.	.	.	.	2b-y	fu-
.	.	2G	gi-	.	.	4c	.	2e	fu-	2b-y	gi-
.	.	.	.	.	.	4B-y	.	.	.	.	.
=	=	=	=	=	=	=	=	=	=	=	=
0r	.	1F	um	1r	.	1c	ne	2.f	gi-	2.a	.
.	.	.	.	.	.	.	.	4g	.	4g	.
.	.	1r	.	2r	.	2r	.	4a	.	2f	.
.	.	.	.	.	.	.	.	4b-y	.	.	.
.	.	.	.	2C	me-	[2G	re-	[2cc	.	2e	.
=	=	=	=	=	=	=	=	=	=	=	=
1r	.	0r	.	1G	di-	2G]	.	2cc]	.	1d	.
.	.	.	.	.	.	2B-y	fu-	2b-y	.	.	.
1FF	me-	.	.	1A	ci-	2A	gi-	[1cc	um	[1c	um
.	.	.	.	.	.	[2F	um	.	.	.	.
=	=	=	=	=	=	=	=	=	=	=	=
1C	di-	1r	.	1G	ne	2F]	.	1cc]	.	1c]	.
.	.	.	.	.	.	2E	.	.	.	.	.
1D	ci-	2r	.	2r	.	4F	re-	1r	.	1r	.
.	.	.	.	.	.	4G	.	.	.	.	.
.	.	2D	re-	2F	re-	4A	.	.	.	.	.
.	.	.	.	.	.	4B-y	.	.	.	.	.
=	=	=	=	=	=	=	=	=	=	=	=
2C	ne	2E	fu-	2G	fu-	1c	.	0r	.	0r	.
2AA	re-	2.F	gi-	1A	gi-	.	.	.	.	.	.
2BB-y	fu-	.	.	.	.	2d	fu-	.	.	.	.
.	.	4E	.	.	.	.	.	.	.	.	.
2C	gi-	4E	.	2G	.	[2c	gi-	.	.	.	.
.	.	8DL	.	.	.	.	.	.	.	.	.
.	.	8EJ	.	.	.	.	.	.	.	.	.
=	=	=	=	=	=	=	=	=	=	=	=
2FF	um	2.F	.	2.A	um	4c]	.	0r	.	0r	.
.	.	.	.	.	.	4B-y	.	.	.	.	.
2.F	.	.	.	.	.	4A	.	.	.	.	.
.	.	4G	.	4B-y	.	4G	.	.	.	.	.
.	.	1A	um	4c	.	2F	.	.	.	.	.
4E	.	.	.	4d	.	.	.	.	.	.	.
4D	.	.	.	[2c	.	[2f	.	.	.	.	.
4C	.	.	.	.	.	.	.	.	.	.	.
=	=	=	=	=	=	=	=	=	=	=	=
1D	.	1F	.	2c]	.	2f]	.	0r	.	1r	.
.	.	.	.	2BnXi	.	4e	.	.	.	.	.
.	.	.	.	.	.	4d	.	.	.	.	.
[1C	.	[1G	.	[1c	.	[1e	um	.	.	2r	.
.	.	.	.	.	.	.	.	.	.	2cc	vi-
=	=	=	=	=	=	=	=	=	=	=	=
1C]	.	1G]	.	1c]	.	1e]	.	2r	.	2.cc	a
.	.	.	.	.	.	.	.	2cc	vi-	.	.
.	.	.	.	.	.	.	.	.	.	4b-y	.
1r	.	1r	.	1r	.	1r	.	2.cc	a	2a	.
.	.	.	.	.	.	.	.	.	.	2g	er-
.	.	.	.	.	.	.	.	4b-y	.	.	.
=	=	=	=	=	=	=	=	=	=	=	=
0r	.	0r	.	2r	.	0r	.	2a	.	2f	ran-
.	.	.	.	2C	vi-	.	.	2g	er-	2e	.
.	.	.	.	2D	a	.	.	2f	ren-	4d	.
.	.	.	.	.	.	.	.	.	.	4c	.
.	.	.	.	2E	er-	.	.	2e	.	[2cc	.
=	=	=	=	=	=	=	=	=	=	=	=
0r	.	1r	.	2F	ran-	0r	.	1d	ti-	2cc]	.
.	.	.	.	2G	ti-	.	.	.	.	2bnXi	ti-
.	.	2r	.	1A	um	.	.	[1c	um	[1cc	um
.	.	2c	vi-	.	.	.	.	.	.	.	.
=	=	=	=	=	=	=	=	=	=	=	=
2r	.	2.c	a	1r	.	0r	.	1c]	.	1cc]	.
2F	vi-	.	.	.	.	.	.	.	.	.	.
.	.	4B-y	.	.	.	.	.	.	.	.	.
2.F	a	2A	.	2r	.	.	.	1r	.	1r	.
.	.	2G	er-	2c	vi-	.	.	.	.	.	.
4E	.	.	.	.	.	.	.	.	.	.	.
=	=	=	=	=	=	=	=	=	=	=	=
2D	.	2F	ran-	2B-y	a	0r	.	0r	.	0r	.
2C	er-	2E	ti-	2A	er-	.	.	.	.	.	.
2BB-y	ran-	4D	.	2G	ran-	.	.	.	.	.	.
.	.	4C	.	.	.	.	.	.	.	.	.
2AA	.	[2F	.	2A	ti-	.	.	.	.	.	.
=	=	=	=	=	=	=	=	=	=	=	=
1GG	ti-	2F]	.	1B-y	am	1r	.	0r	.	1r	.
.	.	2E	.	.	.	.	.	.	.	.	.
1FF	um	1F	um	1A	sa-	[1c	sa-	.	.	[1cc	sa-
=	=	=	=	=	=	=	=	=	=	=	=
1r	.	1r	.	1F	lus	1c]	.	1r	.	1cc]	.
[1FF	sa-	[1F	sa-	[1C	.	[1F	lus	[1a	Sa-	[1cc	lus
=	=	=	=	=	=	=	=	=	=	=	=
1FF]	.	1F]	.	2C]	.	1F]	.	1f	.	1cc]	.
.	.	.	.	2.F	o-	.	.	.	.	.	.
[1BB-y	lus	[1F	lus	.	.	[1B-y	o-	[1d	lus	[1dd	o-
.	.	.	.	4E	.	.	.	.	.	.	.
.	.	.	.	4D	.	.	.	.	.	.	.
.	.	.	.	4C	.	.	.	.	.	.	.
=	=	=	=	=	=	=	=	=	=	=	=
1BB-]	.	1F]	.	2D	.	2B-]	.	1d]	.	2dd]	.
.	.	.	.	2BB-y	mni-	2B-y	mni-	.	.	2dd	mni-
[1FF	o-	[1A	o-	1C	um	1A	um	[1f	o-	[1cc	um
=	=	=	=	=	=	=	=	=	=	=	=
2FF]	.	2A]	.	1.C	in	0c	in	2f]	.	1cc]	.
2FF	mni-	2A	.	.	.	.	.	2f	mni-	.	.
[1C	um	[1G	.	.	.	.	.	[1e	um	1r	.
.	.	.	.	2D	te	.	.	.	.	.	.
=	=	=	=	=	=	=	=	=	=	=	=
1C]	.	1G]	.	1E	spe-	1c	te	1e]	.	1g	In
[1BB-y	In	[1B-y	In	2.D	ran-	[1d	spe-	[1f	In	[1dd	te
.	.	.	.	4E	.	.	.	.	.	.	.
=	=	=	=	=	=	=	=	=	=	=	=
1BB-]	.	1B-]	.	4F	.	1d]	.	1f]	.	2dd]	.
.	.	.	.	4G	.	.	.	.	.	.	.
.	.	.	.	2.F	.	.	.	.	.	2cc	spe-
[1BB-y	te	1B-y	te	.	.	1d	ran-	[1f	te	1b-y	ran-
.	.	.	.	4E	.	.	.	.	.	.	.
.	.	.	.	4D	.	.	.	.	.	.	.
.	.	.	.	4C	.	.	.	.	.	.	.
=	=	=	=	=	=	=	=	=	=	=	=
1BB-]	.	1.F	spe-	1D	ti-	1B-y	ti-	2f]	.	1b-y	ti-
.	.	.	.	.	.	.	.	2g	spe-	.	.
[1FF	spe-	.	.	[1C	um	[1c	um	[1a	ran-	2a	.
.	.	2G	ran-	.	.	.	.	.	.	[2cc	.
=	=	=	=	=	=	=	=	=	=	=	=
2FF]	.	2A	ti-	2C]	.	0c]	.	2a]	.	2cc]	.
2GG	ran-	2B-y	.	2r	.	.	.	4g	.	2b-y	.
.	.	.	.	.	.	.	.	4f	.	.	.
2AA	.	2c	.	2r	.	.	.	2e	.	2a	.
2BB-y	.	4B-y	.	2D	in	.	.	2d	ti-	4g	.
.	.	4A	.	.	.	.	.	.	.	4f	.
=	=	=	=	=	=	=	=	=	=	=	=
1C	ti-	1G	.	2E	te	1r	.	2c	um	1e	.
.	.	.	.	2C	spe-	.	.	1cc	spe-	.	.
1D	.	1F	.	1F	ren-	2r	.	.	.	[1f	.
.	.	.	.	.	.	2d	spe-	2bnXi	ran-	.	.
=	=	=	=	=	=	=	=	=	=	=	=
0C	um	0G	.	1.E	ti-	2e	ran-	0cc	ti-	2f]	.
.	.	.	.	.	.	2.c	ti-	.	.	4e	.
.	.	.	.	.	.	.	.	.	.	4d	.
.	.	.	.	.	.	.	.	.	.	1e	.
.	.	.	.	.	.	4B-y	.	.	.	.	.
.	.	.	.	2C	.	2G	.	.	.	.	.
=	=	=	=	=	=	=	=	=	=	=	=
1FF	.	1F	um	1C	um	1A	um	1cc	um	1f	um
1r	.	1r	.	1F	sa-	1A	sa-	1a	.	1cc	sa-
=	=	=	=	=	=	=	=	=	=	=	=
0FF	sa-	0F	Sa-	1C	lus	0A	lus	1r	.	0cc	lus
.	.	.	.	2D	om-	.	.	1f	sa-	.	.
.	.	.	.	[2F	ni-	.	.	.	.	.	.
=	=	=	=	=	=	=	=	=	=	=	=
0BB-y	lus	0F	lus	4F]	.	1.B-y	o-	0d	lus	1.dd	o-
.	.	.	.	4E	.	.	.	.	.	.	.
.	.	.	.	4D	.	.	.	.	.	.	.
.	.	.	.	4C	.	.	.	.	.	.	.
.	.	.	.	2D	.	.	.	.	.	.	.
.	.	.	.	2BB-y	.	2B-y	mni-	.	.	2dd	mni-
=	=	=	=	=	=	=	=	=	=	=	=
1.FF	o-	1.A	o-	1C	um	1A	um	1.f	o-	0cc	um
.	.	.	.	[1C	In	[1c	in	.	.	.	.
2FF	mni-	2A	mni-	.	.	.	.	2f	min-	.	.
=	=	=	=	=	=	=	=	=	=	=	=
0C	um	0G	um	2C]	.	1c]	.	0e	um	1r	.
.	.	.	.	2D	te	.	.	.	.	.	.
.	.	.	.	1E	spe-	1c	te	.	.	1g	in
=	=	=	=	=	=	=	=	=	=	=	=
0BB-y	In	0B-y	In	2.D	ran-	0d	spe-	0f	In	1.dd	te
.	.	.	.	4E	.	.	.	.	.	.	.
.	.	.	.	4F	.	.	.	.	.	.	.
.	.	.	.	4G	.	.	.	.	.	.	.
.	.	.	.	[2F	ti-	.	.	.	.	2cc	spe-
=	=	=	=	=	=	=	=	=	=	=	=
0BB-y	te	1B-y	te	4F]	.	1d	ran-	1.f	te	1b-y	ran-
.	.	.	.	4E	.	.	.	.	.	.	.
.	.	.	.	4D	.	.	.	.	.	.	.
.	.	.	.	4C	.	.	.	.	.	.	.
.	.	[1F	spe-	1D	.	1B-y	ti-	.	.	1b-y	ti-
.	.	.	.	.	.	.	.	2g	spe-	.	.
=	=	=	=	=	=	=	=	=	=	=	=
1.FF	spe-	2F]	.	1C	um	[0c	um	1.a	ran-	2a	.
.	.	2G	ran-	.	.	.	.	.	.	1cc	.
.	.	2A	ti-	1r	.	.	.	.	.	.	.
2GG	ran-	2B-y	.	.	.	.	.	4g	.	2b-y	.
.	.	.	.	.	.	.	.	4f	.	.	.
=	=	=	=	=	=	=	=	=	=	=	=
2AA	ti-	2c	.	2r	.	1c]	.	2e	.	2a	.
2BB-y	.	4B-y	.	2D	in	.	.	2d	.	4g	.
.	.	4A	.	.	.	.	.	.	.	4f	.
1C	.	1G	.	2E	te	1r	.	2c	ti-	1e	.
.	.	.	.	2C	spe-	.	.	[2cc	.	.	.
=	=	=	=	=	=	=	=	=	=	=	=
1D	.	1F	.	1F	ran-	2r	.	2cc]	.	1.f	.
.	.	.	.	.	.	2d	spe-	2bnXi	.	.	.
1C	.	[1G	.	[1E	ti-	2e	ran-	[1cc	.	.	.
.	.	.	.	.	.	[2c	ti-	.	.	4e	.
.	.	.	.	.	.	.	.	.	.	4d	.
=	=	=	=	=	=	=	=	=	=	=	=
1C	.	1G]	.	2E]	.	4c]	.	1cc]	.	1e	.
.	.	.	.	.	.	4B-y	.	.	.	.	.
.	.	.	.	2C	.	2G	.	.	.	.	.
1FF	um	1F	um	1C	um	1A	um	1a	um	1f	um
=	=	=	=	=	=	=	=	=	=	=	=
*M3/1	*	*M3/1	*	*M3/1	*	*M3/1	*	*M3/1	*	*M3/1	*
*met(C|3)	*	*met(C|3)	*	*met(C|3)	*	*met(C|3)	*	*met(C|3)	*	*met(C|3)	*
0.r	.	0.r	.	0F	Be-	0f	Be-	0cc	Be-	0a	Be-
.	.	.	.	1F	a-	1f	a-	1cc	a-	1a	a-
=	=	=	=	=	=	=	=	=	=	=	=
0.r	.	0.r	.	1F	te	1f	te	1cc	te	1a	te
.	.	.	.	0B-y	Clau-	0d	clau-	0dd	Clau-	1f	Clau-
.	.	.	.	.	.	.	.	.	.	1g	.
=	=	=	=	=	=	=	=	=	=	=	=
0.r	.	0.r	.	0A	di	0e	di	0cc	di	0a	di
.	.	.	.	1A	Be-	1e	be-	1cc	Be-	1a	be-
=	=	=	=	=	=	=	=	=	=	=	=
0.r	.	0.r	.	0A	ni-	0e	ni-	0cc	ni-	0a	ni-
.	.	.	.	1F	gne	1f	gne	1cc	gne	1a	gne
=	=	=	=	=	=	=	=	=	=	=	=
0.r	.	0.r	.	0G	con-	1d	con-	2b-y	con-	1g	con-
.	.	.	.	.	.	.	.	2a	.	.	.
.	.	.	.	.	.	1g	fes-	2b-y	.	1.b-y	fes-
.	.	.	.	.	.	.	.	2cc	.	.	.
.	.	.	.	1B-y	fes-	1f	.	1dd	.	.	.
.	.	.	.	.	.	.	.	.	.	2a	.
=	=	=	=	=	=	=	=	=	=	=	=
0.r	.	0.r	.	1c	sor	1e	.	0cc	fes-	2g	.
.	.	.	.	.	.	.	.	.	.	2f	.
.	.	.	.	0G	.	0d	sor	.	.	0g	.
.	.	.	.	.	.	.	.	1bnXi	.	.	.
=	=	=	=	=	=	=	=	=	=	=	=
0FF	Be-	0F	Be-	1.A	de-	[0.c	de-	1.cc	sor	0f	sor
.	.	.	.	2B-y	.	.	.	2b-y	.	.	.
1FF	a-	1F	a-	1c	.	.	.	2a	.	1f	De-
.	.	.	.	.	.	.	.	2g	.	.	.
=	=	=	=	=	=	=	=	=	=	=	=
1FF	te	1F	te	1.C	.	0.c]	.	0f	.	1.cc	.
0C	clau-	0G	Clau-	.	.	.	.	.	.	.	.
.	.	.	.	2D	.	.	.	.	.	2b-y	.
.	.	.	.	1E	.	.	.	1e	de-	1g	.
=	=	=	=	=	=	=	=	=	=	=	=
0FF	di	0F	di	0C	i	0.A	i	0.f	i	0.a	i
1FF	be-	1F	be-	1C	de-	.	.	.	.	.	.
=	=	=	=	=	=	=	=	=	=	=	=
0FF	ni-	0F	ni-	0C	i	0.r	.	0.r	.	0.r	.
1FF	gne	1F	gne	1c	con-	.	.	.	.	.	.
=	=	=	=	=	=	=	=	=	=	=	=
0C	con-	2E	con-	0c	fes-	0.r	.	0.r	.	0.r	.
.	.	2D	.	.	.	.	.	.	.	.	.
.	.	2E	.	.	.	.	.	.	.	.	.
.	.	2F	.	.	.	.	.	.	.	.	.
1GG	fes-	1G	.	1B-y	sor	.	.	.	.	.	.
=	=	=	=	=	=	=	=	=	=	=	=
1AA	sor	0F	fes-	1A	de-	0.r	.	0.r	.	0.r	.
1BB-y	de-	.	.	0G	.	.	.	.	.	.	.
1C	.	1E	.	.	.	.	.	.	.	.	.
=	=	=	=	=	=	=	=	=	=	=	=
*M2/1	*	*M2/1	*	*M2/1	*	*M2/1	*	*M2/1	*	*M2/1	*
*met(C|)	*	*met(C|)	*	*met(C|)	*	*met(C|)	*	*met(C|)	*	*met(C|)	*
0FF	i	0F	or	0F	i	1r	.	0r	.	0cc	Im-
.	.	.	.	.	.	[1f	Im-	.	.	.	.
=	=	=	=	=	=	=	=	=	=	=	=
0r	.	0r	.	0r	.	1f]	.	0r	.	1a	plo-
.	.	.	.	.	.	1d	plo-	.	.	[1b-y	ra
=	=	=	=	=	=	=	=	=	=	=	=
0r	.	1r	.	0r	.	1.e-X	ra	0r	.	2b-]	.
.	.	.	.	.	.	.	.	.	.	2a	a-
.	.	[1c	de-	.	.	.	.	.	.	1g	pud
.	.	.	.	.	.	2d	a-	.	.	.	.
=	=	=	=	=	=	=	=	=	=	=	=
0r	.	1c]	.	0F	Im-	0c	pud	0r	.	1a	de-
.	.	1A	i	.	.	.	.	.	.	[1f	um
=	=	=	=	=	=	=	=	=	=	=	=
0r	.	1.B-y	Im-	1D	plo-	1d	de-	0r	.	1f]	.
.	.	.	.	[1E-X	ra	1B-y	.	.	.	1r	.
.	.	2A	plo-	.	.	.	.	.	.	.	.
=	=	=	=	=	=	=	=	=	=	=	=
0C	Im-	0G	ra	2E-]	.	1c	um	1r	.	0r	.
.	.	.	.	2D	a-	.	.	.	.	.	.
.	.	.	.	[1C	pud	2r	.	[1cc	Im-	.	.
.	.	.	.	.	.	2e	pro	.	.	.	.
=	=	=	=	=	=	=	=	=	=	=	=
1AA	plo-	1A	a-	1C]	.	1e	no-	1cc]	.	0r	.
[1BB-y	ra	2.F	pud	[1D	de-	1d	bis	1f	plo-	.	.
.	.	4E	.	.	.	.	.	.	.	.	.
=	=	=	=	=	=	=	=	=	=	=	=
2BB-]	.	4D	.	1D]	.	1.B-y	au-	1.b-y	ra	0r	.
.	.	4C	.	.	.	.	.	.	.	.	.
2AA	.	1F	.	.	.	.	.	.	.	.	.
1GG	a-	.	.	1BB-y	.	.	.	.	.	.	.
.	.	2E	de-	.	.	2G	xi-	2b-y	a-	.	.
=	=	=	=	=	=	=	=	=	=	=	=
1FF	pud	1F	um	2C	.	1.c	li-	1a	pud	0r	.
.	.	.	.	1F	.	.	.	.	.	.	.
[1C	de-	1r	.	.	.	.	.	1g	de-	.	.
.	.	.	.	4E	.	4B-y	.	.	.	.	.
.	.	.	.	4D	.	4A	.	.	.	.	.
=	=	=	=	=	=	=	=	=	=	=	=
1C]	.	0r	.	1E	.	4G	.	1cc	um	1g	pro
.	.	.	.	.	.	4F	.	.	.	.	.
.	.	.	.	.	.	2G	.	.	.	.	.
[1FF	um	.	.	1F	um	2F	um	1r	.	1cc	no-
.	.	.	.	.	.	2c	pro	.	.	.	.
=	=	=	=	=	=	=	=	=	=	=	=
1FF]	.	1r	.	0r	.	1f	no-	0r	.	2a	bis
.	.	.	.	.	.	.	.	.	.	2a	au-
1r	.	1G	pro	.	.	2d	bis	.	.	2.b-y	xi-
.	.	.	.	.	.	2d	au-	.	.	.	.
.	.	.	.	.	.	.	.	.	.	4a	li-
=	=	=	=	=	=	=	=	=	=	=	=
0r	.	1c	no-	1C	pro	2.e	xi-	0r	.	1g	um
.	.	.	.	.	.	4d	.	.	.	.	.
.	.	2A	bis	1F	no-	1c	li-	.	.	1r	.
.	.	2A	au-	.	.	.	.	.	.	.	.
=	=	=	=	=	=	=	=	=	=	=	=
1GG	pro	2.B-y	xi-	2D	bis	1d	.	0r	.	1r	.
.	.	.	.	2D	au-	.	.	.	.	.	.
.	.	4A	.	.	.	.	.	.	.	.	.
1C	no-	1G	.	2.E	xi-	[1c	um	.	.	2r	.
.	.	.	.	.	.	.	.	.	.	2g	pro
.	.	.	.	4D	li-	.	.	.	.	.	.
=	=	=	=	=	=	=	=	=	=	=	=
2AA	bis	4A	li-	1C	um	1c]	.	0r	.	1cc	no-
.	.	4G	.	.	.	.	.	.	.	.	.
2AA	au-	4F	.	.	.	.	.	.	.	.	.
.	.	4E	.	.	.	.	.	.	.	.	.
1BB-y	xi-	4D	.	1D	.	2r	.	.	.	[1b-y	bis
.	.	4C	.	.	.	.	.	.	.	.	.
.	.	[2F	.	.	.	2G	pro	.	.	.	.
=	=	=	=	=	=	=	=	=	=	=	=
1GG	li-	2F]	.	1BB-y	pro	1B-y	no-	2r	.	2b-]	.
.	.	2E	.	.	.	.	.	2g	pro	4a	au-
.	.	.	.	.	.	.	.	.	.	4g	.
1FF	um	2F	um	2C	no-	[1c	bis	1cc	no-	2.a	xi-
.	.	[2c	pro	2C	bis	.	.	.	.	.	.
.	.	.	.	.	.	.	.	.	.	4g	.
=	=	=	=	=	=	=	=	=	=	=	=
2r	.	2c]	.	1F	au-	2c]	.	2a	bis	1.f	li-
2FF	pro	2c	no-	.	.	2A	au-	2a	au-	.	.
1BB-y	no-	1d	bis	2D	xi-	2F	xi-	2.b-y	xi-	.	.
.	.	.	.	[2F	li-	2F	li-	.	.	4e	.
.	.	.	.	.	.	.	.	4a	.	4d	.
=	=	=	=	=	=	=	=	=	=	=	=
2C	bis	2.c	au-	2F]	.	1c	um	2g	.	2e	.
2C	au-	.	.	2E	um	.	.	2.a	li-	2c	.
.	.	4B-y	.	.	.	.	.	.	.	.	.
1D	xi-	2A	xi-	2F	pro	1r	.	.	.	4f	.
.	.	.	.	.	.	.	.	4g	.	4g	.
.	.	4G	li-	2D	no-	.	.	[2f	.	4a	.
.	.	4F	.	.	.	.	.	.	.	4b-y	.
=	=	=	=	=	=	=	=	=	=	=	=
1C	li-	1G	.	1E	bis	2r	.	2f]	.	0cc	.
.	.	.	.	.	.	2G	au-	2e	.	.	.
[1FF	um	[1Fl	um	[1C	au-	1A	xi-	[1fl	um.	.	.
=	=	=	=	=	=	=	=	=	=	=	=
2FF]	.	0F_	.	2C]	.	1.c	li-	0f_	.	1a	.
2FF	au-	.	.	2C	xi-	.	.	.	.	.	.
1BB-y	xi-	.	.	1D	.	.	.	.	.	2b-y	.
.	.	.	.	.	.	4B-y	.	.	.	[2dd	.
.	.	.	.	.	.	4A	.	.	.	.	.
=	=	=	=	=	=	=	=	=	=	=	=
1BB-y	li-	0F_	.	1D	li-	1B-y	.	0f_	.	2dd]	.
.	.	.	.	.	.	.	.	.	.	4cc	.
.	.	.	.	.	.	.	.	.	.	4b-y	.
[1FFl	um.	.	.	[1Cl	um.	[1cl	um	.	.	[1al	um
=	=	=	=	=	=	=	=	=	=	=	=
00FF]	.	00F]	.	00C]	.	00c]	.	00f]	.	00a]	.
==	==	==	==	==	==	==	==	==	==	==	==
*-	*-	*-	*-	*-	*-	*-	*-	*-	*-	*-	*-
!!!system-decoration: [*]
!!!RDF**kern: i = editorial accidental
!!!RDF**kern: l = terminal long
!!!ENC: Rex Eakins
!!!END: 2025/10/27
!!!EED: Benjamin Ory
!!!EEV: 2025/10/27
!!!YEC: Copyright 2025 Rex Eakins and Benjamin Ory, All Rights Reserved
!!!ONB: Translated from MusicXML on 2025/10/27
!!!verovio: header encoded
!!!header-left: Edited by @{ENC} (2025)\n
!!!header-right:
!!!header-center: